X: 814
T: Red Bird
C:Clark Kessinger version
B: jims roots
M:C|
L:1/8
Q: 1/4=100
K:A
V:1 
|:ag | "A"a2 A2 ABcA | BAFG ABce | fgaf eceg | "E7"begb egfg |
"A"a2A2 A2Ac | BAFG ABce | fgaf edcB | "E7"A2A2"A"A2 :|
|:"A"ce- | efec efec | "D"defg agfa | "A"efed cBAc | "E7"BAGF EFGA |
"A"ce2f ecAc | "D"defg agfa |"E7"efed cABc | "A"A2A4 :|
|:E2- | "A"E4- EcBA | "D"F6AF | "E7"E8 | "A"afed cBAF |
E4-  EcBA | "D"F6 AF | "E7"E4 cefg | "A"a6 :|
AF | "A"A2E2 cBAG | "D"F2DF A2F2 | "E7"EFGA Bdeg | "A"afed cBAF |
"A"E2E2 AcBA | "D"FEDE FGAF | "E7"E2E2 cefg | afec A2 :|
% abcbook-tune_id 6298c279e578a06917d28b35


% abcbook-boost 0
% abcbook-tablature 
% abcbook-transpose 
% abcbook-lastupdated 1654178426788
% abcbook-soundfonts 
% abcbook-repeats 1


